assets/icons/download.svg

<svg width="24" height="25" viewBox="0 0 24 25" fill="none" xmlns="http://www.w3.org/2000/svg">
<path d="M2.00002 19.6664V15.6664C2.00002 15.1141 2.44773 14.6664 3.00002 14.6664C3.5523 14.6664 4.00002 15.1141 4.00002 15.6664V19.6664C4.00002 19.9315 4.10542 20.1858 4.29298 20.3734L4.36623 20.4398C4.54417 20.5857 4.7679 20.6664 5.00002 20.6664H19C19.2652 20.6664 19.5195 20.561 19.707 20.3734C19.8946 20.1858 20 19.9316 20 19.6664V15.6664C20 15.1141 20.4477 14.6664 21 14.6664C21.5523 14.6664 22 15.1141 22 15.6664V19.6664C22 20.462 21.6837 21.2248 21.1211 21.7875C20.5585 22.3501 19.7956 22.6664 19 22.6664H5.00002C4.30376 22.6664 3.63253 22.4242 3.09865 21.9867L2.87892 21.7875C2.31633 21.2249 2.00002 20.462 2.00002 19.6664Z" fill="white"/>
<path d="M16.3692 9.891C16.7619 9.57065 17.3409 9.59324 17.707 9.95936C18.0732 10.3255 18.0958 10.9045 17.7754 11.2973L17.707 11.3734L12.707 16.3734C12.3165 16.7639 11.6835 16.7639 11.293 16.3734L6.29299 11.3734L6.22463 11.2973C5.90428 10.9045 5.92687 10.3255 6.29299 9.95936C6.6591 9.59324 7.2381 9.57065 7.63088 9.891L7.70705 9.95936L12 14.2523L16.293 9.95936L16.3692 9.891Z" fill="white"/>
<path d="M11 15.6664V3.66638C11 3.1141 11.4477 2.66638 12 2.66638C12.5523 2.66638 13 3.1141 13 3.66638V15.6664C13 16.2187 12.5523 16.6664 12 16.6664C11.4477 16.6664 11 16.2187 11 15.6664Z" fill="white"/>
</svg>

<svg xmlns="http://www.w3.org/2000/svg" width="24" height="25" fill="none" viewBox="0 0 24 25"><path fill="#fff" d="M2 19.666v-4a1 1 0 1 1 2 0v4a1 1 0 0 0 .293.707l.073.067a1 1 0 0 0 .634.226h14a1 1 0 0 0 1-1v-4a1 1 0 1 1 2 0v4a3 3 0 0 1-3 3H5a3 3 0 0 1-1.901-.68l-.22-.198A3 3 0 0 1 2 19.666"/><path fill="#fff" d="M16.37 9.891a1 1 0 0 1 1.405 1.406l-.068.076-5 5a1 1 0 0 1-1.414 0l-5-5-.068-.076A1 1 0 0 1 7.63 9.891l.076.068L12 14.252l4.293-4.293z"/><path fill="#fff" d="M11 15.666v-12a1 1 0 1 1 2 0v12a1 1 0 1 1-2 0"/></svg>
